app/dist/common/images/nuvalent.svg

<svg height="18" viewBox="0 0 18 18" width="18" xmlns="http://www.w3.org/2000/svg"><path d="m0 0h18v18h-18z" fill="#f0f3fa"/><path d="m9.31 4 4.47 2h-4.48v-2zm0 5.07 4.36-2.26-4.36 6.96zm.22 4.81 4.47-2.37v-4.78zm3.97-7.38-4.2 2.07v-2.07h4.19z" fill="#88c7cd"/><path d="m8.69 6v-2l-4.47 2h4.48zm0 2.95v-2.45h-4.69v4.88zm0 5.05-4.44-2.36 4.44-2.27z" fill="#24264d"/></svg>

<!-- by TradingView --><svg width="18" height="18" viewBox="0 0 18 18" xmlns="http://www.w3.org/2000/svg"><path fill="#F0F3FA" d="M0 0h18v18H0z"/><path d="m9.31 4 4.47 2H9.3V4Zm0 5.07 4.36-2.26-4.36 6.96v-4.7Zm.22 4.81L14 11.51V6.73l-4.47 7.15ZM13.5 6.5 9.3 8.57V6.5h4.19Z" fill="#88C7CD"/><path d="M8.69 6V4L4.22 6H8.7Zm0 2.95V6.5H4v4.88l4.69-2.43Zm0 5.05-4.44-2.36 4.44-2.27V14Z" fill="#24264D"/></svg>
